;FLAVOR:Marlin
;TIME:8433
;Filament used: 6.79828m
;Layer height: 0.2
;MINX:61
;MINY:61
;MINZ:0.2
;MAXX:174
;MAXY:174
;MAXZ:3.4
;Generated with Cura_SteamEngine 5.2.2
M140 S60
M105
M190 S60
M104 S200
M105
M109 S200
M82 ;absolute extrusion mode
M201 X500.00 Y500.00 Z100.00 E5000.00 ;Setup machine max acceleration
M203 X500.00 Y500.00 Z10.00 E50.00 ;Setup machine max feedrate
M204 P500.00 R1000.00 T500.00 ;Setup Print/Retract/Travel acceleration
M205 X8.00 Y8.00 Z0.40 E5.00 ;Setup Jerk
M220 S100 ;Reset Feedrate
M221 S100 ;Reset Flowrate

G28 ;Home

G92 E0 ;Reset Extruder
G1 Z2.0 F3000 ;Move Z Axis up
G1 X10.1 Y20 Z0.28 F5000.0 ;Move to start position
G1 X10.1 Y200.0 Z0.28 F1500.0 E15 ;Draw the first line
G1 X10.4 Y200.0 Z0.28 F5000.0 ;Move to side a little
G1 X10.4 Y20 Z0.28 F1500.0 E30 ;Draw the second line
G92 E0 ;Reset Extruder
G1 Z2.0 F3000 ;Move Z Axis up

G92 E0
G92 E0
G1 F1500 E-6.5
;LAYER_COUNT:17
;LAYER:0
M107
G0 F6000 X64.198 Y64.264 Z0.2
;TYPE:SKIRT
G1 F1500 E0
G1 F1200 X64.886 Y63.627 E0.03119
G1 X65.626 Y63.051 E0.06237
G1 X66.412 Y62.539 E0.09357
G1 X67.239 Y62.097 E0.12476
G1 X68.101 Y61.727 E0.15596
G1 X68.991 Y61.431 E0.18716
G1 X69.903 Y61.213 E0.21835
G1 X70.83 Y61.072 E0.24953
G1 X71.701 Y61.013 E0.27857
G1 X72.33 Y61 E0.29949
G1 X162.451 Y61.001 E3.29693
G1 X163.149 Y61.011 E3.32015
G1 X164.085 Y61.065 E3.35133
G1 X165.013 Y61.197 E3.38251
G1 X165.927 Y61.409 E3.41371
G1 X166.819 Y61.698 E3.4449
G1 X167.684 Y62.061 E3.4761
G1 X168.514 Y62.497 E3.50728
G1 X169.305 Y63.002 E3.5385
G1 X170.049 Y63.573 E3.56969
G1 X170.742 Y64.205 E3.60089
G1 X171.379 Y64.893 E3.63207
G1 X171.954 Y65.634 E3.66327
G1 X172.465 Y66.42 E3.69445
G1 X172.907 Y67.248 E3.72567
G1 X173.276 Y68.11 E3.75685
G1 X173.571 Y69 E3.78804
G1 X173.789 Y69.912 E3.81923
G1 X173.929 Y70.84 E3.85044
G1 X173.987 Y71.701 E3.87914
G1 X174 Y72.33 E3.90007
G1 X173.999 Y162.4 E6.89581
G1 X173.99 Y163.127 E6.91999
G1 X173.939 Y164.064 E6.9512
G1 X173.807 Y164.992 E6.98238
G1 X173.598 Y165.906 E7.01356
G1 X173.311 Y166.799 E7.04476
G1 X172.949 Y167.665 E7.07598
G1 X172.515 Y168.496 E7.10716
G1 X172.011 Y169.287 E7.13835
G1 X171.442 Y170.032 E7.16953
G1 X170.811 Y170.727 E7.20075
G1 X170.124 Y171.365 E7.23194
G1 X169.385 Y171.942 E7.26312
G1 X168.599 Y172.454 E7.29432
G1 X167.773 Y172.897 E7.3255
G1 X166.911 Y173.269 E7.35672
G1 X166.022 Y173.565 E7.38789
G1 X165.11 Y173.785 E7.41909
G1 X164.183 Y173.926 E7.45028
G1 X163.299 Y173.987 E7.47975
G1 X162.67 Y174 E7.50067
G1 X72.565 Y173.999 E10.49758
G1 X71.867 Y173.99 E10.5208
G1 X70.931 Y173.938 E10.55198
G1 X70.002 Y173.806 E10.58318
G1 X69.088 Y173.596 E10.61438
G1 X68.195 Y173.309 E10.64557
G1 X67.33 Y172.946 E10.67677
G1 X66.499 Y172.512 E10.70796
G1 X65.708 Y172.008 E10.73915
G1 X64.963 Y171.438 E10.77035
G1 X64.269 Y170.807 E10.80155
G1 X63.632 Y170.12 E10.83271
G1 X63.055 Y169.38 E10.86392
G1 X62.543 Y168.594 E10.89512
G1 X62.1 Y167.767 E10.92632
G1 X61.729 Y166.906 E10.9575
G1 X61.433 Y166.016 E10.9887
G1 X61.214 Y165.104 E11.0199
G1 X61.073 Y164.177 E11.05108
G1 X61.013 Y163.288 E11.08072
G1 X61 Y162.658 E11.10168
G1 X61.001 Y72.525 E14.09951
G1 X61.01 Y71.86 E14.12163
G1 X61.063 Y70.924 E14.15281
G1 X61.195 Y69.995 E14.18402
G1 X61.406 Y69.081 E14.21522
G1 X61.694 Y68.189 E14.2464
G1 X62.057 Y67.324 E14.2776
G1 X62.492 Y66.493 E14.3088
G1 X62.996 Y65.703 E14.33996
G1 X63.566 Y64.958 E14.37116
G1 X64.198 Y64.264 E14.40238
G0 F6000 X64.589 Y64.439
G1 F1200 X65.274 Y63.823 E14.43302
G1 X66.01 Y63.27 E14.46364
G1 X66.791 Y62.782 E14.49427
G1 X67.611 Y62.364 E14.52488
G1 X68.465 Y62.019 E14.55552
G1 X69.345 Y61.749 E14.58613
G1 X70.245 Y61.557 E14.61674
G1 X71.159 Y61.443 E14.64738
G1 X71.712 Y61.413 E14.6658
G1 X72.33 Y61.4 E14.68636
G1 X162.445 Y61.401 E17.68359
G1 X163.143 Y61.411 E17.70681
G1 X164.062 Y61.464 E17.73743
G1 X164.973 Y61.597 E17.76805
G1 X165.869 Y61.808 E17.79867
G1 X166.743 Y62.096 E17.82927
G1 X167.59 Y62.459 E17.85992
G1 X168.401 Y62.894 E17.89053
G1 X169.171 Y63.398 E17.92114
G1 X169.895 Y63.967 E17.95177
G1 X170.567 Y64.597 E17.9824
G1 X171.182 Y65.282 E18.01302
G1 X171.735 Y66.018 E18.04364
G1 X172.222 Y66.799 E18.07425
G1 X172.639 Y67.62 E18.10488
G1 X172.984 Y68.474 E18.13552
G1 X173.253 Y69.354 E18.16612
G1 X173.445 Y70.255 E18.19676
G1 X173.558 Y71.168 E18.22736
G1 X173.587 Y71.712 E18.24548
G1 X173.6 Y72.33 E18.26604
G1 X173.599 Y162.395 E21.26161
G1 X173.59 Y163.122 E21.28579
G1 X173.539 Y164.041 E21.31641
G1 X173.408 Y164.953 E21.34705
G1 X173.198 Y165.849 E21.37766
G1 X172.912 Y166.724 E21.40828
G1 X172.551 Y167.571 E21.4389
G1 X172.117 Y168.383 E21.46952
G1 X171.615 Y169.155 E21.50015
G1 X171.047 Y169.88 E21.53079
G1 X170.419 Y170.553 E21.5614
G1 X169.735 Y171.169 E21.59202
G1 X169 Y171.723 E21.62263
G1 X168.22 Y172.212 E21.65325
G1 X167.4 Y172.631 E21.68388
G1 X166.547 Y172.977 E21.71449
G1 X165.667 Y173.248 E21.74512
G1 X164.767 Y173.441 E21.77573
G1 X163.853 Y173.556 E21.80637
G1 X163.288 Y173.587 E21.82519
G1 X162.67 Y173.6 E21.84575
G1 X72.57 Y173.599 E24.84249
G1 X71.872 Y173.59 E24.86571
G1 X70.953 Y173.538 E24.89632
G1 X70.042 Y173.407 E24.92693
G1 X69.146 Y173.197 E24.95754
G1 X68.271 Y172.91 E24.98817
G1 X67.424 Y172.548 E25.01881
G1 X66.612 Y172.114 E25.04943
G1 X65.841 Y171.612 E25.08003
G1 X65.116 Y171.044 E25.11066
G1 X64.443 Y170.415 E25.1413
G1 X63.828 Y169.731 E25.1719
G1 X63.274 Y168.996 E25.20251
G1 X62.786 Y168.215 E25.23314
G1 X62.367 Y167.395 E25.26377
G1 X62.021 Y166.542 E25.29438
G1 X61.751 Y165.662 E25.325
G1 X61.558 Y164.761 E25.35564
G1 X61.444 Y163.848 E25.38625
G1 X61.413 Y163.277 E25.40527
G1 X61.4 Y162.658 E25.42586
G1 X61.401 Y72.531 E28.4235
G1 X61.41 Y71.866 E28.44562
G1 X61.462 Y70.946 E28.47626
G1 X61.594 Y70.035 E28.50688
G1 X61.805 Y69.139 E28.5375
G1 X62.092 Y68.264 E28.56812
G1 X62.455 Y67.418 E28.59874
G1 X62.889 Y66.606 E28.62937
G1 X63.392 Y65.835 E28.65998
G1 X63.961 Y65.111 E28.69061
G1 X64.589 Y64.439 E28.7212
G0 F6000 X64.981 Y64.617
G1 F1200 X65.662 Y64.024 E28.75124
G1 X66.394 Y63.494 E28.78129
G1 X67.169 Y63.031 E28.81132
G1 X67.982 Y62.638 E28.84136
G1 X68.827 Y62.318 E28.87141
G1 X69.696 Y62.075 E28.90142
G1 X70.584 Y61.909 E28.93147
G1 X71.723 Y61.813 E28.96948
G1 X72.33 Y61.8 E28.98968
G1 X162.439 Y61.801 E31.98671
G1 X163.137 Y61.811 E32.00993
G1 X164.039 Y61.864 E32.03999
G1 X164.932 Y61.996 E32.07001
G1 X165.81 Y62.207 E32.10004
G1 X166.666 Y62.495 E32.13008
G1 X167.493 Y62.857 E32.16011
G1 X168.285 Y63.292 E32.19016
G1 X169.036 Y63.794 E32.22021
G1 X169.739 Y64.361 E32.25025
G1 X170.389 Y64.988 E32.28028
G1 X170.981 Y65.67 E32.31032
G1 X171.511 Y66.401 E32.34035
G1 X171.973 Y67.177 E32.37039
G1 X172.366 Y67.99 E32.40042
G1 X172.684 Y68.835 E32.43045
G1 X172.927 Y69.705 E32.4605
G1 X173.092 Y70.593 E32.49054
G1 X173.187 Y71.723 E32.52825
G1 X173.2 Y72.33 E32.54845
G1 X173.199 Y162.39 E35.54386
G1 X173.19 Y163.117 E35.56804
G1 X173.139 Y164.019 E35.59809
G1 X173.008 Y164.913 E35.62814
G1 X172.799 Y165.791 E35.65816
G1 X172.513 Y166.648 E35.68821
G1 X172.152 Y167.476 E35.71825
G1 X171.72 Y168.268 E35.74825
G1 X171.219 Y169.02 E35.77831
G1 X170.653 Y169.724 E35.80835
G1 X170.028 Y170.375 E35.83837
G1 X169.347 Y170.969 E35.86842
G1 X168.616 Y171.5 E35.89847
G1 X167.842 Y171.964 E35.92849
G1 X167.029 Y172.358 E35.95854
G1 X166.185 Y172.678 E35.98856
G1 X165.315 Y172.923 E36.01862
G1 X164.428 Y173.089 E36.04864
G1 X163.277 Y173.187 E36.08706
G1 X162.67 Y173.2 E36.10725
G1 X72.575 Y173.199 E39.10382
G1 X71.877 Y173.19 E39.12704
G1 X70.976 Y173.139 E39.15705
G1 X70.082 Y173.007 E39.18711
G1 X69.204 Y172.798 E39.21713
G1 X68.347 Y172.511 E39.24719
G1 X67.52 Y172.15 E39.2772
G1 X66.727 Y171.717 E39.30725
G1 X65.976 Y171.216 E39.33728
G1 X65.272 Y170.65 E39.36732
G1 X64.621 Y170.024 E39.39736
G1 X64.028 Y169.343 E39.4274
G1 X63.498 Y168.612 E39.45743
G1 X63.034 Y167.837 E39.48747
G1 X62.64 Y167.024 E39.51752
G1 X62.32 Y166.18 E39.54754
G1 X62.076 Y165.31 E39.57759
G1 X61.91 Y164.422 E39.60764
G1 X61.813 Y163.267 E39.64619
G1 X61.8 Y162.658 E39.66645
G1 X61.801 Y72.536 E42.66392
G1 X61.81 Y71.871 E42.68604
G1 X61.862 Y70.969 E42.71609
G1 X61.994 Y70.076 E42.74612
G1 X62.204 Y69.198 E42.77614
G1 X62.491 Y68.341 E42.8062
G1 X62.853 Y67.514 E42.83623
G1 X63.286 Y66.722 E42.86625
G1 X63.788 Y65.971 E42.89629
G1 X64.355 Y65.267 E42.92636
G1 X64.981 Y64.617 E42.95637
G1 F1500 E36.45637
;MESH:test.stl
G0 F6000 X72.42 Y71.335
G0 X72.6 Y162.4
;TYPE:WALL-INNER
G1 F1500 E42.95637
G1 F1200 X162.4 Y162.4 E45.94313
G1 X162.4 Y117.5 E47.43651
G1 X162.4 Y72.6 E48.92989
G1 X72.6 Y72.6 E51.91665
G1 X72.6 Y162.4 E54.90341
G0 F6000 X72.2 Y162.8
;TYPE:WALL-OUTER
G1 F1200 X162.8 Y162.8 E57.91678
G1 X162.8 Y117.5 E59.42347
G1 X162.8 Y72.2 E60.93015
G1 X72.2 Y72.2 E63.94352
G1 X72.2 Y162.8 E66.95689
G0 F6000 X72.47 Y162.53
G0 X72.7 Y162.04
G0 X72.96 Y162.04
;TYPE:SKIN
G1 F1200 X162.04 Y162.04 E69.9197
G1 X162.04 Y117.5 E71.40111
G1 X162.04 Y72.96 E72.88251
G1 X72.96 Y72.96 E75.84533
G1 X72.96 Y162.04 E78.80814
G0 F6000 X73.592 Y161.839
G1 F1200 X73.159 Y161.406 E78.82851
G0 F6000 X73.159 Y160.84
G1 F1200 X74.158 Y161.839 E78.8755
G0 F6000 X74.724 Y161.839
G1 F1200 X73.159 Y160.274 E78.94911
G0 F6000 X73.159 Y159.709
G1 F1200 X75.289 Y161.839 E79.0493
G0 F6000 X75.855 Y161.839
G1 F1200 X73.159 Y159.143 E79.17611
G0 F6000 X73.159 Y158.577
G1 F1200 X76.421 Y161.839 E79.32954
G0 F6000 X76.986 Y161.839
G1 F1200 X73.159 Y158.012 E79.50955
G0 F6000 X73.159 Y157.446
G1 F1200 X77.552 Y161.839 E79.71619
G0 F6000 X78.118 Y161.839
G1 F1200 X73.159 Y156.88 E79.94944
G0 F6000 X73.159 Y156.315
G1 F1200 X78.684 Y161.839 E80.2093
G0 F6000 X79.249 Y161.839
G1 F1200 X73.159 Y155.749 E80.49575
G0 F6000 X73.159 Y155.183
G1 F1200 X79.815 Y161.839 E80.80883
G0 F6000 X80.381 Y161.839
G1 F1200 X73.159 Y154.618 E81.14851
G0 F6000 X73.159 Y154.052
G1 F1200 X80.946 Y161.839 E81.51479
G0 F6000 X81.512 Y161.839
G1 F1200 X73.159 Y153.486 E81.90768
G0 F6000 X73.159 Y152.921
G1 F1200 X82.078 Y161.839 E82.32718
G0 F6000 X82.643 Y161.839
G1 F1200 X73.159 Y152.355 E82.77328
G0 F6000 X73.159 Y151.789
G1 F1200 X83.209 Y161.839 E83.246
G0 F6000 X83.775 Y161.839
G1 F1200 X73.159 Y151.223 E83.74535
G0 F6000 X73.159 Y150.658
G1 F1200 X84.34 Y161.839 E84.27127
G0 F6000 X84.906 Y161.839
G1 F1200 X73.159 Y150.092 E84.82381
G0 F6000 X73.159 Y149.526
G1 F1200 X85.472 Y161.839 E85.40298
G0 F6000 X86.037 Y161.839
G1 F1200 X73.159 Y148.961 E86.00872
G0 F6000 X73.159 Y148.395
G1 F1200 X86.603 Y161.839 E86.64108
G0 F6000 X87.169 Y161.839
G1 F1200 X73.159 Y147.829 E87.30007
G0 F6000 X73.159 Y147.264
G1 F1200 X87.734 Y161.839 E87.98563
G0 F6000 X88.3 Y161.839
G1 F1200 X73.159 Y146.698 E88.69782
G0 F6000 X73.159 Y146.132
G1 F1200 X88.866 Y161.839 E89.43663
G0 F6000 X89.432 Y161.839
G1 F1200 X73.159 Y145.567 E90.20204
G0 F6000 X73.159 Y145.001
G1 F1200 X89.997 Y161.839 E90.99404
G0 F6000 X90.563 Y161.839
G1 F1200 X73.159 Y144.435 E91.81268
G0 F6000 X73.159 Y143.87
G1 F1200 X91.129 Y161.839 E92.65791
G0 F6000 X91.694 Y161.839
G1 F1200 X73.159 Y143.304 E93.52974
G0 F6000 X73.159 Y142.738
G1 F1200 X92.26 Y161.839 E94.42819
G0 F6000 X92.826 Y161.839
G1 F1200 X73.159 Y142.173 E95.35324
G0 F6000 X73.159 Y141.607
G1 F1200 X93.391 Y161.839 E96.30489
G0 F6000 X93.957 Y161.839
G1 F1200 X73.159 Y141.041 E97.28317
G0 F6000 X73.159 Y140.475
G1 F1200 X94.523 Y161.839 E98.28806
G0 F6000 X95.088 Y161.839
G1 F1200 X73.159 Y139.91 E99.31954
G0 F6000 X73.159 Y139.344
G1 F1200 X95.654 Y161.839 E100.37763
G0 F6000 X96.22 Y161.839
G1 F1200 X73.159 Y138.778 E101.46235
G0 F6000 X73.159 Y138.213
G1 F1200 X96.785 Y161.839 E102.57364
G0 F6000 X97.351 Y161.839
G1 F1200 X73.159 Y137.647 E103.71156
G0 F6000 X73.159 Y137.081
G1 F1200 X97.917 Y161.839 E104.8761
G0 F6000 X98.483 Y161.839
G1 F1200 X73.159 Y136.516 E106.06724
G0 F6000 X73.159 Y135.95
G1 F1200 X99.048 Y161.839 E107.28498
G0 F6000 X99.614 Y161.839
G1 F1200 X73.159 Y135.384 E108.52934
G0 F6000 X73.159 Y134.819
G1 F1200 X100.18 Y161.839 E109.8003
G0 F6000 X100.745 Y161.839
G1 F1200 X73.159 Y134.253 E111.09787
G0 F6000 X73.159 Y133.687
G1 F1200 X101.311 Y161.839 E112.42205
G0 F6000 X101.877 Y161.839
G1 F1200 X73.159 Y133.122 E113.77283
G0 F6000 X73.159 Y132.556
G1 F1200 X102.442 Y161.839 E115.15022
G0 F6000 X103.008 Y161.839
G1 F1200 X73.159 Y131.99 E116.55422
G0 F6000 X73.159 Y131.424
G1 F1200 X103.574 Y161.839 E117.98485
G0 F6000 X104.139 Y161.839
G1 F1200 X73.159 Y130.859 E119.44205
G0 F6000 X73.159 Y130.293
G1 F1200 X104.705 Y161.839 E120.92588
G0 F6000 X105.271 Y161.839
G1 F1200 X73.159 Y129.727 E122.43633
G0 F6000 X73.159 Y129.162
G1 F1200 X105.836 Y161.839 E123.97336
G0 F6000 X106.402 Y161.839
G1 F1200 X73.159 Y128.596 E125.537
G0 F6000 X73.159 Y128.03
G1 F1200 X106.968 Y161.839 E127.12728
G0 F6000 X107.533 Y161.839
G1 F1200 X73.159 Y127.465 E128.74412
G0 F6000 X73.159 Y126.899
G1 F1200 X108.099 Y161.839 E130.38759
G0 F6000 X108.665 Y161.839
G1 F1200 X73.159 Y126.333 E132.05769
G0 F6000 X73.159 Y125.768
G1 F1200 X109.231 Y161.839 E133.75438
G0 F6000 X109.796 Y161.839
G1 F1200 X73.159 Y125.202 E135.47767
G0 F6000 X73.159 Y124.636
G1 F1200 X110.362 Y161.839 E137.22759
G0 F6000 X110.928 Y161.839
G1 F1200 X73.159 Y124.071 E139.0041
G0 F6000 X73.159 Y123.505
G1 F1200 X111.493 Y161.839 E140.80722
G0 F6000 X112.059 Y161.839
G1 F1200 X73.159 Y122.939 E142.63695
G0 F6000 X73.159 Y122.374
G1 F1200 X112.625 Y161.839 E144.49329
G0 F6000 X113.19 Y161.839
G1 F1200 X73.159 Y121.808 E146.37622
G0 F6000 X73.159 Y121.242
G1 F1200 X113.756 Y161.839 E148.28578
G0 F6000 X114.322 Y161.839
G1 F1200 X73.159 Y120.676 E150.22196
G0 F6000 X73.159 Y120.111
G1 F1200 X114.887 Y161.839 E152.18472
G0 F6000 X115.453 Y161.839
G1 F1200 X73.159 Y119.545 E154.1741
G0 F6000 X73.159 Y118.979
G1 F1200 X116.019 Y161.839 E156.1901
G0 F6000 X116.584 Y161.839
G1 F1200 X73.159 Y118.414 E158.23268
G0 F6000 X73.159 Y117.848
G1 F1200 X117.15 Y161.839 E160.30189
G0 F6000 X117.716 Y161.839
G1 F1200 X73.159 Y117.282 E162.39771
G0 F6000 X73.159 Y116.717
G1 F1200 X118.281 Y161.839 E164.52011
G0 F6000 X118.847 Y161.839
G1 F1200 X73.159 Y116.151 E166.66913
G0 F6000 X73.159 Y115.585
G1 F1200 X119.413 Y161.839 E168.84478
G0 F6000 X119.979 Y161.839
G1 F1200 X73.159 Y115.02 E171.04703
G0 F6000 X73.159 Y114.454
G1 F1200 X120.544 Y161.839 E173.27587
G0 F6000 X121.11 Y161.839
G1 F1200 X73.159 Y113.888 E175.53134
G0 F6000 X73.159 Y113.323
G1 F1200 X121.676 Y161.839 E177.81341
G0 F6000 X122.241 Y161.839
G1 F1200 X73.159 Y112.757 E180.12207
G0 F6000 X73.159 Y112.191
G1 F1200 X122.807 Y161.839 E182.45736
G0 F6000 X123.373 Y161.839
G1 F1200 X73.159 Y111.625 E184.81928
G0 F6000 X73.159 Y111.06
G1 F1200 X123.938 Y161.839 E187.20776
G0 F6000 X124.504 Y161.839
G1 F1200 X73.159 Y110.494 E189.62288
G0 F6000 X73.159 Y109.928
G1 F1200 X125.07 Y161.839 E192.06461
G0 F6000 X125.635 Y161.839
G1 F1200 X73.159 Y109.363 E194.53292
G0 F6000 X73.159 Y108.797
G1 F1200 X126.201 Y161.839 E197.02785
G0 F6000 X126.767 Y161.839
G1 F1200 X73.159 Y108.231 E199.54941
G0 F6000 X73.159 Y107.666
G1 F1200 X127.332 Y161.839 E202.09754
G0 F6000 X127.898 Y161.839
G1 F1200 X73.159 Y107.1 E204.6723
G0 F6000 X73.159 Y106.534
G1 F1200 X128.464 Y161.839 E207.27367
G0 F6000 X129.03 Y161.839
G1 F1200 X73.159 Y105.969 E209.90165
G0 F6000 X73.159 Y105.403
G1 F1200 X129.595 Y161.839 E212.55623
G0 F6000 X130.161 Y161.839
G1 F1200 X73.159 Y104.837 E215.23743
G0 F6000 X73.159 Y104.272
G1 F1200 X130.727 Y161.839 E217.94522
G0 F6000 X131.292 Y161.839
G1 F1200 X73.159 Y103.706 E220.67962
G0 F6000 X73.159 Y103.14
G1 F1200 X131.858 Y161.839 E223.44064
G0 F6000 X132.424 Y161.839
G1 F1200 X73.159 Y102.575 E226.22826
G0 F6000 X73.159 Y102.009
G1 F1200 X132.989 Y161.839 E229.04248
G0 F6000 X133.555 Y161.839
G1 F1200 X73.159 Y101.443 E231.88333
G0 F6000 X73.159 Y100.877
G1 F1200 X134.121 Y161.839 E234.75079
G0 F6000 X134.686 Y161.839
G1 F1200 X73.159 Y100.312 E237.64483
G0 F6000 X73.159 Y99.746
G1 F1200 X135.252 Y161.839 E240.5655
G0 F6000 X135.818 Y161.839
G1 F1200 X73.159 Y99.18 E243.51279
G0 F6000 X73.159 Y98.615
G1 F1200 X136.383 Y161.839 E246.48665
